X: 19740
T: Jenny Picking Cockles
R: reel
M: 4/4
K: Dmixolydian
|:Addc AGEF|GEcE dEcE|Addc AGEF|GEcE ED D2|
Addc AGEF|G2AB c3d|eddc AGEF|GEcE ED D2:|
f3d e3d|cAAB cdeg|f3d ed (3Bcd|eaag fdde|
f3d e3d|cAAB c3d|eddc AGEF|GEcE ED D2|
f3d e3d|cAAB cdeg|fAdf ed (3Bcd|eaag fdde|
f3d e3d|cAAB c3d|eddc AGEF|GEcE ED D2||

